X:66
T:King of the Pipers, The
R:jig
H:There are 3 other tunes called "King of the Pipers": #8, #219, #307
D:Paddy Glackin: Ceol ar an bhFidil le Paddy Glackin
D:Dervish: The Boys of Sligo
Z:id:hn-jig-66
M:6/8
K:D
AFF dFF|AFB AFD|AFF dAF|DFA GAB|AFF dFF|AFB AFD|~F3 AFD|DFA GAB:|
|:ABc d2A|dfa agf|geg fdB|AFA Bcd|ABc d2A|dfa agf|geg fdB|1 AFA ~B3:|2 AFA B2A||
|:Bbb Baa|~g3 fdA|Bbb Baa|AFA B2A|Bbb Baa|~g3 fdB|AFd AFE|1 DFA B2A:|2 DFA ~B3||
<end>
<start>
